X:455
T: Saint Mary's
S: "Johnny O'Leary of Sliabh Luachra" (#322)
Z: B.Black
L: 1/8
M: 2/4
Q: 270
R: polka
K: G
G2 AB/A/|Gg e/f/g/e/|dB AG/A/|B/c/B/A/ G/F/E/F/|
GB AB/A/|Gg e/f/g/e/|dB AG/A/|BG G>F :|
Bd g2|B/c/d gf/g/|Bd ge|f2 fg|
a2 e/f/g/e/|dB AG/A/|Bc/B/ d/B/A/B/|1 G2 G>A :|2\
G2 G2 :|
